!!!SOCIAL_FUNCTION:	bird dance songs
!!!PDT:	1956
!!!OTL: No_105_Hinata_Dance_Song_(a).krn
!!!LANG: Non-Tone
!!!LING_GROUP: Muskogean
!!!REG: Florida
**kern
*staff1
=1-
*clefF4
*k[f#c#g#d#]
*M2/4
4r
8.r
16c#\
=2
8.B\L
16B\Jk
(16c#\LK
8.B\J)
=3
8B\L
8G#\J
12G#\L
12G#\J
24r
24B\
=4
8.B\L
16B\Jk
(8G#\L
8E\J)
=5
4E\
12E\L
12E\J
24r
24G#\
=6
(16G#\LK
8E\)
16E\Jk
4BB/
=7
4BB/
12BB/L
12BB/J
24r
24E\
=8
8.E\L
16E\Jk
4E\
=9
4E\
12E\L
12E\J
24r
24G#\
=10
(16G#\LK
8E\)
16E\Jk
4BB/
=11
4BB/
8BB/L
8BB/J
==
*-
